X: 2
T: Reel St. Antoinne $1(R-132)
I: Reel St. Antoinne	R-132	A	reel
R: reel
M: C|
K: A
"A"a3a aece| aaa2-aece| agfe "A#o"dcBA| "Bm"GABc "E7"defg|
"A"a3a aece| agab aece| agfe "Bm"dcBA| "E7"GABc "A"A4 :|
|:"A"c3c cAce| dcBA "A#o"GABc| "Bm"d3d dBdf| edcB AGAB|
"F#m"c3c cAce| "Bm"dcBA GABc| "E7"defg afed| cdBc "A"A4 :|

